Homework 11 (freehand svg)/assets/images/logo-footer.svg

<svg width="200" height="35" viewBox="0 0 200 35" fill="none" xmlns="http://www.w3.org/2000/svg">
<path d="M48.132 30.5C47.712 30.5 47.362 30.36 47.082 30.08C46.8253 29.8 46.697 29.4617 46.697 29.065V7.4C46.697 7.00333 46.8253 6.67667 47.082 6.42C47.362 6.14 47.7003 6 48.097 6H60.382C60.7787 6 61.117 6.12833 61.397 6.385C61.677 6.64167 61.817 6.96833 61.817 7.365C61.817 7.73833 61.677 8.05333 61.397 8.31C61.117 8.56667 60.7787 8.695 60.382 8.695H49.357L49.567 8.415V16.99L49.392 16.605H58.807C59.2037 16.605 59.542 16.745 59.822 17.025C60.102 17.2817 60.242 17.6083 60.242 18.005C60.242 18.355 60.102 18.67 59.822 18.95C59.542 19.2067 59.2037 19.335 58.807 19.335H49.322L49.567 19.02V29.065C49.567 29.4617 49.427 29.8 49.147 30.08C48.867 30.36 48.5287 30.5 48.132 30.5ZM67.0894 30.5C66.6928 30.5 66.3544 30.36 66.0744 30.08C65.8178 29.8 65.6894 29.4617 65.6894 29.065V13.805C65.6894 13.4083 65.8178 13.0817 66.0744 12.825C66.3544 12.545 66.6928 12.405 67.0894 12.405C67.5094 12.405 67.8478 12.545 68.1044 12.825C68.3611 13.0817 68.4894 13.4083 68.4894 13.805V18.425L68.0694 17.69C68.2094 16.9667 68.4544 16.2667 68.8044 15.59C69.1778 14.89 69.6444 14.2717 70.2044 13.735C70.7644 13.175 71.4061 12.7433 72.1294 12.44C72.8528 12.1133 73.6461 11.95 74.5094 11.95C75.0228 11.95 75.4894 12.0783 75.9094 12.335C76.3528 12.5683 76.5744 12.9067 76.5744 13.35C76.5744 13.84 76.4461 14.2017 76.1894 14.435C75.9328 14.6683 75.6411 14.785 75.3144 14.785C75.0111 14.785 74.7194 14.7267 74.4394 14.61C74.1594 14.47 73.8094 14.4 73.3894 14.4C72.8061 14.4 72.2228 14.5633 71.6394 14.89C71.0794 15.1933 70.5544 15.6367 70.0644 16.22C69.5978 16.8033 69.2128 17.4683 68.9094 18.215C68.6294 18.9383 68.4894 19.72 68.4894 20.56V29.065C68.4894 29.4617 68.3494 29.8 68.0694 30.08C67.8128 30.36 67.4861 30.5 67.0894 30.5ZM87.3161 30.85C85.4495 30.85 83.8161 30.4533 82.4161 29.66C81.0161 28.8667 79.9195 27.7817 79.1261 26.405C78.3561 25.005 77.9711 23.395 77.9711 21.575C77.9711 19.545 78.3678 17.8183 79.1611 16.395C79.9778 14.9483 81.0278 13.8517 82.3111 13.105C83.6178 12.335 84.9945 11.95 86.4411 11.95C87.5145 11.95 88.5528 12.1483 89.5561 12.545C90.5595 12.9417 91.4461 13.525 92.2161 14.295C92.9861 15.0417 93.6045 15.9517 94.0711 17.025C94.5378 18.075 94.7828 19.2533 94.8061 20.56C94.8061 20.9333 94.6661 21.2483 94.3861 21.505C94.1061 21.7617 93.7795 21.89 93.4061 21.89H79.5811L78.9511 19.475H92.4261L91.8661 19.965V19.195C91.7728 18.2383 91.4461 17.4217 90.8861 16.745C90.3495 16.045 89.6845 15.5083 88.8911 15.135C88.1211 14.7617 87.3045 14.575 86.4411 14.575C85.7411 14.575 85.0411 14.7033 84.3411 14.96C83.6645 15.1933 83.0461 15.59 82.4861 16.15C81.9495 16.6867 81.5061 17.3867 81.1561 18.25C80.8295 19.1133 80.6661 20.1517 80.6661 21.365C80.6661 22.7183 80.9345 23.9083 81.4711 24.935C82.0311 25.9617 82.8011 26.7783 83.7811 27.385C84.7611 27.9683 85.9045 28.26 87.2111 28.26C88.0278 28.26 88.7395 28.155 89.3461 27.945C89.9528 27.735 90.4778 27.4783 90.9211 27.175C91.3645 26.8483 91.7378 26.5217 92.0411 26.195C92.3445 25.985 92.6361 25.88 92.9161 25.88C93.2661 25.88 93.5461 25.9967 93.7561 26.23C93.9895 26.4633 94.1061 26.7433 94.1061 27.07C94.1061 27.4667 93.9195 27.8167 93.5461 28.12C92.8928 28.8433 92.0061 29.485 90.8861 30.045C89.7661 30.5817 88.5761 30.85 87.3161 30.85ZM107.38 30.85C105.513 30.85 103.88 30.4533 102.48 29.66C101.08 28.8667 99.983 27.7817 99.1896 26.405C98.4196 25.005 98.0346 23.395 98.0346 21.575C98.0346 19.545 98.4313 17.8183 99.2246 16.395C100.041 14.9483 101.091 13.8517 102.375 13.105C103.681 12.335 105.058 11.95 106.505 11.95C107.578 11.95 108.616 12.1483 109.62 12.545C110.623 12.9417 111.51 13.525 112.28 14.295C113.05 15.0417 113.668 15.9517 114.135 17.025C114.601 18.075 114.846 19.2533 114.87 20.56C114.87 20.9333 114.73 21.2483 114.45 21.505C114.17 21.7617 113.843 21.89 113.47 21.89H99.6446L99.0146 19.475H112.49L111.93 19.965V19.195C111.836 18.2383 111.51 17.4217 110.95 16.745C110.413 16.045 109.748 15.5083 108.955 15.135C108.185 14.7617 107.368 14.575 106.505 14.575C105.805 14.575 105.105 14.7033 104.405 14.96C103.728 15.1933 103.11 15.59 102.55 16.15C102.013 16.6867 101.57 17.3867 101.22 18.25C100.893 19.1133 100.73 20.1517 100.73 21.365C100.73 22.7183 100.998 23.9083 101.535 24.935C102.095 25.9617 102.865 26.7783 103.845 27.385C104.825 27.9683 105.968 28.26 107.275 28.26C108.091 28.26 108.803 28.155 109.41 27.945C110.016 27.735 110.541 27.4783 110.985 27.175C111.428 26.8483 111.801 26.5217 112.105 26.195C112.408 25.985 112.7 25.88 112.98 25.88C113.33 25.88 113.61 25.9967 113.82 26.23C114.053 26.4633 114.17 26.7433 114.17 27.07C114.17 27.4667 113.983 27.8167 113.61 28.12C112.956 28.8433 112.07 29.485 110.95 30.045C109.83 30.5817 108.64 30.85 107.38 30.85ZM127.828 12.125C129.368 12.125 130.581 12.4633 131.468 13.14C132.378 13.7933 133.02 14.68 133.393 15.8C133.79 16.8967 133.988 18.1217 133.988 19.475V29.065C133.988 29.4617 133.848 29.8 133.568 30.08C133.311 30.36 132.985 30.5 132.588 30.5C132.191 30.5 131.853 30.36 131.573 30.08C131.316 29.8 131.188 29.4617 131.188 29.065V19.475C131.188 18.5883 131.06 17.795 130.803 17.095C130.546 16.3717 130.115 15.8 129.508 15.38C128.925 14.9367 128.12 14.715 127.093 14.715C126.136 14.715 125.261 14.9367 124.468 15.38C123.675 15.8 123.045 16.3717 122.578 17.095C122.111 17.795 121.878 18.5883 121.878 19.475V29.065C121.878 29.4617 121.738 29.8 121.458 30.08C121.201 30.36 120.875 30.5 120.478 30.5C120.081 30.5 119.743 30.36 119.463 30.08C119.206 29.8 119.078 29.4617 119.078 29.065V6C119.078 5.60333 119.206 5.27667 119.463 5.02C119.743 4.74 120.081 4.6 120.478 4.6C120.898 4.6 121.236 4.74 121.493 5.02C121.75 5.27667 121.878 5.60333 121.878 6V16.465L121.178 17.235C121.295 16.6283 121.551 16.0217 121.948 15.415C122.345 14.785 122.846 14.225 123.453 13.735C124.06 13.245 124.736 12.86 125.483 12.58C126.23 12.2767 127.011 12.125 127.828 12.125ZM154.086 12.23C154.482 12.23 154.809 12.37 155.066 12.65C155.346 12.9067 155.486 13.2333 155.486 13.63V29.065C155.486 29.4617 155.346 29.8 155.066 30.08C154.809 30.36 154.482 30.5 154.086 30.5C153.666 30.5 153.327 30.36 153.071 30.08C152.814 29.8 152.686 29.4617 152.686 29.065V25.74L153.351 25.67C153.351 26.1833 153.176 26.7433 152.826 27.35C152.476 27.9567 151.997 28.5283 151.391 29.065C150.784 29.5783 150.061 30.01 149.221 30.36C148.404 30.6867 147.517 30.85 146.561 30.85C144.974 30.85 143.551 30.4417 142.291 29.625C141.031 28.785 140.027 27.6533 139.281 26.23C138.557 24.8067 138.196 23.185 138.196 21.365C138.196 19.5217 138.557 17.9 139.281 16.5C140.027 15.0767 141.031 13.9683 142.291 13.175C143.551 12.3583 144.951 11.95 146.491 11.95C147.494 11.95 148.427 12.1133 149.291 12.44C150.154 12.7667 150.901 13.21 151.531 13.77C152.184 14.33 152.686 14.9483 153.036 15.625C153.409 16.3017 153.596 16.9783 153.596 17.655L152.686 17.445V13.63C152.686 13.2333 152.814 12.9067 153.071 12.65C153.327 12.37 153.666 12.23 154.086 12.23ZM146.876 28.26C148.042 28.26 149.069 27.9567 149.956 27.35C150.866 26.7433 151.566 25.9267 152.056 24.9C152.569 23.85 152.826 22.6717 152.826 21.365C152.826 20.0817 152.569 18.9267 152.056 17.9C151.566 16.85 150.866 16.0333 149.956 15.45C149.069 14.8433 148.042 14.54 146.876 14.54C145.732 14.54 144.706 14.8317 143.796 15.415C142.909 15.9983 142.209 16.8033 141.696 17.83C141.182 18.8567 140.926 20.035 140.926 21.365C140.926 22.6717 141.171 23.85 141.661 24.9C142.174 25.9267 142.874 26.7433 143.761 27.35C144.671 27.9567 145.709 28.26 146.876 28.26ZM169.67 11.95C171.256 11.95 172.505 12.2767 173.415 12.93C174.325 13.5833 174.966 14.4583 175.34 15.555C175.736 16.6517 175.935 17.8767 175.935 19.23V29.065C175.935 29.4617 175.795 29.8 175.515 30.08C175.258 30.36 174.931 30.5 174.535 30.5C174.138 30.5 173.8 30.36 173.52 30.08C173.263 29.8 173.135 29.4617 173.135 29.065V19.3C173.135 18.4133 172.995 17.62 172.715 16.92C172.458 16.1967 172.015 15.625 171.385 15.205C170.778 14.7617 169.938 14.54 168.865 14.54C167.885 14.54 166.986 14.7617 166.17 15.205C165.353 15.625 164.7 16.1967 164.21 16.92C163.72 17.62 163.475 18.4133 163.475 19.3V29.065C163.475 29.4617 163.335 29.8 163.055 30.08C162.798 30.36 162.471 30.5 162.075 30.5C161.678 30.5 161.34 30.36 161.06 30.08C160.803 29.8 160.675 29.4617 160.675 29.065V13.805C160.675 13.4083 160.803 13.0817 161.06 12.825C161.34 12.545 161.678 12.405 162.075 12.405C162.495 12.405 162.833 12.545 163.09 12.825C163.346 13.0817 163.475 13.4083 163.475 13.805V16.29L162.775 17.06C162.891 16.4533 163.16 15.8467 163.58 15.24C164 14.61 164.525 14.05 165.155 13.56C165.785 13.07 166.485 12.685 167.255 12.405C168.025 12.1017 168.83 11.95 169.67 11.95ZM196.024 4.6C196.421 4.6 196.748 4.74 197.004 5.02C197.284 5.27667 197.424 5.60333 197.424 6V29.065C197.424 29.4617 197.284 29.8 197.004 30.08C196.748 30.36 196.421 30.5 196.024 30.5C195.604 30.5 195.266 30.36 195.009 30.08C194.753 29.8 194.624 29.4617 194.624 29.065V25.74L195.289 25.495C195.289 26.055 195.114 26.65 194.764 27.28C194.414 27.8867 193.936 28.4583 193.329 28.995C192.723 29.5317 191.999 29.975 191.159 30.325C190.343 30.675 189.456 30.85 188.499 30.85C186.936 30.85 185.513 30.4417 184.229 29.625C182.969 28.8083 181.966 27.6883 181.219 26.265C180.496 24.8417 180.134 23.22 180.134 21.4C180.134 19.5567 180.496 17.9233 181.219 16.5C181.966 15.0767 182.969 13.9683 184.229 13.175C185.489 12.3583 186.889 11.95 188.429 11.95C189.409 11.95 190.331 12.1133 191.194 12.44C192.058 12.7667 192.804 13.21 193.434 13.77C194.088 14.33 194.601 14.9483 194.974 15.625C195.348 16.3017 195.534 16.9783 195.534 17.655L194.624 17.445V6C194.624 5.60333 194.753 5.27667 195.009 5.02C195.266 4.74 195.604 4.6 196.024 4.6ZM188.814 28.26C189.981 28.26 191.008 27.9683 191.894 27.385C192.804 26.7783 193.504 25.9617 193.994 24.935C194.508 23.885 194.764 22.7067 194.764 21.4C194.764 20.07 194.508 18.8917 193.994 17.865C193.504 16.8383 192.804 16.0333 191.894 15.45C191.008 14.8433 189.981 14.54 188.814 14.54C187.671 14.54 186.644 14.8433 185.734 15.45C184.848 16.0333 184.148 16.8383 183.634 17.865C183.121 18.8917 182.864 20.07 182.864 21.4C182.864 22.6833 183.121 23.85 183.634 24.9C184.148 25.9267 184.848 26.7433 185.734 27.35C186.644 27.9567 187.671 28.26 188.814 28.26Z" fill="white"/>
<path d="M31.0638 10.2871C31.0638 5.99329 27.5798 2.5 23.2975 2.5C20.0757 2.5 17.2106 4.52039 16.0639 7.453C14.9171 4.52039 12.0518 2.5 8.83015 2.5C4.54788 2.5 1.06384 5.99329 1.06384 10.2871C1.06384 13.5134 3.00547 16.3292 5.91059 17.5C3.00547 18.6708 1.06384 21.4866 1.06384 24.7129C1.06384 29.0067 4.54788 32.5 8.83015 32.5C12.0518 32.5 14.9171 30.4796 16.0639 27.547C17.2106 30.4796 20.0757 32.5 23.2975 32.5C27.5798 32.5 31.0638 29.0067 31.0638 24.7129C31.0638 21.4866 29.1222 18.6708 26.2171 17.5C29.1222 16.3292 31.0638 13.5134 31.0638 10.2871ZM24.8904 17.1349C24.7211 17.1741 24.6011 17.3257 24.6011 17.5C24.6011 17.6743 24.7211 17.8259 24.8904 17.8651C28.0848 18.6096 30.3158 21.4254 30.3158 24.7129C30.3158 28.5933 27.1674 31.75 23.2975 31.75C19.9947 31.75 17.1063 29.4004 16.4299 26.1635C16.3937 25.9899 16.2409 25.8654 16.0639 25.8654C15.887 25.8654 15.7341 25.9899 15.698 26.1635C15.0214 29.4004 12.133 31.75 8.83015 31.75C4.96024 31.75 1.81186 28.5933 1.81186 24.7129C1.81186 21.4254 4.04293 18.6096 7.23733 17.8651C7.40662 17.8259 7.5266 17.6743 7.5266 17.5C7.5266 17.3257 7.40662 17.1741 7.23733 17.1349C4.04293 16.3904 1.81186 13.5746 1.81186 10.2871C1.81186 6.40674 4.96024 3.25 8.83015 3.25C12.133 3.25 15.0214 5.59961 15.698 8.83655C15.7341 9.01013 15.887 9.13464 16.0639 9.13464C16.2409 9.13464 16.3937 9.01013 16.4299 8.83655C17.1063 5.59961 19.9947 3.25 23.2975 3.25C27.1674 3.25 30.3158 6.40674 30.3158 10.2871C30.3158 13.5746 28.0848 16.3904 24.8904 17.1349Z" stroke="#3DB370" stroke-width="2"/>
</svg>

<svg xmlns="http://www.w3.org/2000/svg" width="200" height="35" fill="none"><path fill="#fff" d="M48.13 30.5c-.42 0-.77-.14-1.05-.42a1.45 1.45 0 0 1-.38-1.01V7.4c0-.4.13-.72.38-.98.28-.28.62-.42 1.02-.42h12.28c.4 0 .74.13 1.02.38.28.26.42.59.42.99 0 .37-.14.68-.42.94-.28.26-.62.38-1.02.38H49.36l.2-.28V17l-.17-.38h9.42c.4 0 .73.14 1.01.41a1.3 1.3 0 0 1 0 1.93c-.28.26-.62.39-1.01.39h-9.49l.25-.32v10.05c0 .4-.14.73-.42 1.01-.28.28-.62.42-1.02.42Zm18.96 0c-.4 0-.74-.14-1.02-.42a1.45 1.45 0 0 1-.38-1.01V13.8c0-.4.13-.72.38-.98.28-.28.62-.42 1.02-.42.42 0 .76.14 1.01.42.26.26.39.59.39.98v4.63l-.42-.74a7.33 7.33 0 0 1 2.14-3.96c.55-.55 1.2-.99 1.92-1.29a5.72 5.72 0 0 1 2.38-.49c.51 0 .98.13 1.4.39.44.23.66.57.66 1.01 0 .49-.12.85-.38 1.09-.26.23-.55.35-.88.35-.3 0-.6-.06-.87-.18a2.34 2.34 0 0 0-1.05-.21c-.58 0-1.17.16-1.75.49a5.5 5.5 0 0 0-1.58 1.33 7.98 7.98 0 0 0-1.15 2c-.28.72-.42 1.5-.42 2.34v8.5c0 .4-.14.74-.42 1.02-.26.28-.58.42-.98.42Zm20.23.35c-1.87 0-3.5-.4-4.9-1.19a8.64 8.64 0 0 1-3.3-3.25 9.86 9.86 0 0 1-1.15-4.84c0-2.02.4-3.75 1.2-5.18a8.57 8.57 0 0 1 3.14-3.29 8.01 8.01 0 0 1 4.13-1.15c1.07 0 2.11.2 3.12.6 1 .4 1.89.97 2.66 1.74a9.02 9.02 0 0 1 2.59 6.26c0 .38-.14.7-.42.95-.28.26-.61.39-.98.39H79.58l-.63-2.41h13.48l-.56.48v-.77a4.42 4.42 0 0 0-.98-2.45 5.54 5.54 0 0 0-4.44-2.17c-.7 0-1.4.13-2.1.39-.69.23-1.3.63-1.86 1.19a6.24 6.24 0 0 0-1.33 2.1c-.33.86-.5 1.9-.5 3.11 0 1.36.27 2.55.81 3.57a6.48 6.48 0 0 0 2.31 2.46c.98.58 2.12.87 3.43.87a6.53 6.53 0 0 0 3.71-1.09 8 8 0 0 0 1.12-.98c.3-.2.6-.31.88-.31.35 0 .63.12.84.35.23.23.35.51.35.84 0 .4-.2.75-.56 1.05a8.9 8.9 0 0 1-2.66 1.93c-1.12.53-2.31.8-3.57.8Zm20.06 0c-1.87 0-3.5-.4-4.9-1.19a8.64 8.64 0 0 1-3.29-3.25 9.86 9.86 0 0 1-1.16-4.84c0-2.02.4-3.75 1.2-5.18a8.56 8.56 0 0 1 3.14-3.29 8 8 0 0 1 4.13-1.15c1.08 0 2.12.2 3.12.6 1 .4 1.89.97 2.66 1.74a9.04 9.04 0 0 1 2.59 6.26c0 .38-.14.7-.42.95-.28.26-.6.39-.98.39H99.64l-.63-2.41h13.48l-.56.48v-.77a4.42 4.42 0 0 0-.98-2.45 5.55 5.55 0 0 0-4.45-2.17c-.7 0-1.4.13-2.1.39-.67.23-1.29.63-1.85 1.19a6.24 6.24 0 0 0-1.33 2.1c-.33.86-.49 1.9-.49 3.11 0 1.36.27 2.55.8 3.57a6.48 6.48 0 0 0 2.31 2.46c.98.58 2.13.87 3.44.87a6.54 6.54 0 0 0 3.7-1.09c.45-.32.82-.65 1.13-.98.3-.2.59-.31.87-.31.35 0 .63.12.84.35.23.23.35.51.35.84 0 .4-.19.75-.56 1.05a8.9 8.9 0 0 1-2.66 1.93c-1.12.53-2.31.8-3.57.8Zm20.45-18.73c1.54 0 2.75.34 3.64 1.02a5.2 5.2 0 0 1 1.92 2.66c.4 1.1.6 2.32.6 3.68v9.59c0 .4-.14.73-.42 1.01-.26.28-.58.42-.98.42s-.74-.14-1.02-.42a1.45 1.45 0 0 1-.38-1.01v-9.6c0-.88-.13-1.67-.39-2.38a3.42 3.42 0 0 0-1.3-1.71 3.9 3.9 0 0 0-2.4-.67c-.96 0-1.84.23-2.63.67-.8.42-1.42 1-1.9 1.71-.46.7-.7 1.5-.7 2.39v9.59c0 .4-.13.73-.41 1.01-.26.28-.58.42-.98.42s-.74-.14-1.02-.42a1.45 1.45 0 0 1-.38-1.01V6c0-.4.13-.72.38-.98.28-.28.62-.42 1.02-.42.42 0 .76.14 1.01.42.26.26.39.58.39.98v10.46l-.7.77c.11-.6.37-1.2.77-1.82a7.27 7.27 0 0 1 5.88-3.29Zm26.26.11c.4 0 .72.14.98.42.28.26.42.58.42.98v15.44c0 .4-.14.73-.42 1.01-.26.28-.59.42-.98.42-.42 0-.76-.14-1.02-.42a1.45 1.45 0 0 1-.38-1.01v-3.33l.66-.07a3.4 3.4 0 0 1-.52 1.68 6.94 6.94 0 0 1-3.6 3.01 7.1 7.1 0 0 1-2.67.49c-1.59 0-3-.4-4.27-1.23a9.04 9.04 0 0 1-3-3.39 10.58 10.58 0 0 1-1.1-4.87c0-1.84.37-3.46 1.1-4.86a8.49 8.49 0 0 1 3-3.32 7.56 7.56 0 0 1 4.2-1.23c1 0 1.94.16 2.8.49a7.14 7.14 0 0 1 3.75 3.19c.37.67.56 1.35.56 2.03l-.91-.21v-3.82c0-.4.12-.72.38-.98.26-.28.6-.42 1.02-.42Zm-7.21 16.03c1.16 0 2.19-.3 3.08-.91a5.97 5.97 0 0 0 2.1-2.45c.5-1.05.77-2.23.77-3.54 0-1.28-.26-2.43-.77-3.46a5.69 5.69 0 0 0-10.36-.07 7.8 7.8 0 0 0-.77 3.54c0 1.3.24 2.48.73 3.53a6.33 6.33 0 0 0 2.1 2.45c.91.6 1.95.91 3.12.91Zm22.79-16.31c1.59 0 2.84.33 3.75.98a5.22 5.22 0 0 1 1.92 2.63c.4 1.1.6 2.32.6 3.67v9.84c0 .4-.15.73-.43 1.01-.25.28-.58.42-.97.42-.4 0-.74-.14-1.02-.42a1.45 1.45 0 0 1-.39-1.01V19.3c0-.89-.13-1.68-.41-2.38-.26-.72-.7-1.3-1.34-1.72a4.2 4.2 0 0 0-2.51-.66c-.99 0-1.88.22-2.7.67-.82.41-1.47.99-1.96 1.71-.49.7-.74 1.5-.74 2.38v9.77c0 .4-.13.73-.41 1.01-.26.28-.59.42-.99.42s-.73-.14-1.01-.42a1.45 1.45 0 0 1-.38-1.01V13.8c0-.4.12-.72.38-.98.28-.28.62-.42 1.01-.42.43 0 .76.14 1.02.42.26.26.38.59.38.98v2.49l-.7.77c.12-.6.39-1.21.81-1.82a7.66 7.66 0 0 1 6.09-3.29Zm26.35-7.35c.4 0 .73.14.98.42.28.26.42.58.42.98v23.07c0 .4-.14.73-.42 1.01-.25.28-.58.42-.98.42-.42 0-.75-.14-1.01-.42a1.45 1.45 0 0 1-.39-1.01v-3.33l.67-.24a3.7 3.7 0 0 1-.53 1.78c-.35.6-.82 1.18-1.43 1.71-.6.54-1.33.99-2.17 1.34a7.8 7.8 0 0 1-6.93-.7 8.77 8.77 0 0 1-3.01-3.37 10.6 10.6 0 0 1-1.09-4.86c0-1.84.37-3.48 1.09-4.9a8.5 8.5 0 0 1 3-3.32 7.56 7.56 0 0 1 4.2-1.23 7.75 7.75 0 0 1 5.01 1.82 6.71 6.71 0 0 1 1.54 1.86c.38.67.56 1.35.56 2.03l-.9-.21V6c0-.4.12-.72.38-.98.26-.28.6-.42 1.01-.42Zm-7.2 23.66c1.16 0 2.19-.3 3.07-.88a5.97 5.97 0 0 0 2.1-2.45c.52-1.04.77-2.22.77-3.53a7.8 7.8 0 0 0-.77-3.54 5.73 5.73 0 0 0-8.26-2.41 6.08 6.08 0 0 0-2.1 2.41 7.8 7.8 0 0 0-.77 3.54c0 1.28.26 2.45.77 3.5a6.35 6.35 0 0 0 2.1 2.45c.91.6 1.94.91 3.08.91Z"/><path stroke="#3DB370" stroke-width="2" d="M31.06 10.29c0-4.3-3.48-7.79-7.76-7.79a7.8 7.8 0 0 0-7.24 4.95A7.8 7.8 0 0 0 8.83 2.5a7.79 7.79 0 0 0-2.92 15 7.79 7.79 0 0 0 2.92 15 7.8 7.8 0 0 0 7.23-4.95 7.8 7.8 0 0 0 7.24 4.95 7.79 7.79 0 0 0 2.92-15 7.74 7.74 0 0 0 4.84-7.21Zm-6.17 6.84a.37.37 0 0 0 0 .74 7.04 7.04 0 0 1-1.6 13.88c-3.3 0-6.18-2.35-6.86-5.59a.37.37 0 0 0-.73 0 7.05 7.05 0 0 1-6.87 5.59 7.04 7.04 0 0 1-1.6-13.88.37.37 0 0 0 0-.74 7.04 7.04 0 0 1 1.6-13.88c3.3 0 6.2 2.35 6.87 5.59a.37.37 0 0 0 .73 0 7.05 7.05 0 0 1 6.87-5.59 7.04 7.04 0 0 1 1.59 13.88Z"/></svg>
